!!!!SEGMENT: pl-wtm--r-250-n--001_komorowski-ignacy-marceli--skrzypki.krn
!!!cenid: 18xx:2158
!!!COM: Komorowski, Ignacy Marceli
!!!COM-rism: pe30023354
!!!CDT: 1824-1858
!!!CNT: Polish
!!!OTL: Skrzypki
!!!PDT:
!!!AGN: Secular
!!!SMS-siglum: PL-Wtm
!!!SMS-shelfmark: R 250/N
!!!NIFC-rismID: 1001083682
!!!URL-scan: http://repozytorium.nifc.pl/skany/pl-wtm-nut--r250n
!!!ONB-nifc: UWAGA: w zbiorze: 1. Skrzypki (Komorowski), 2. Zielona łąka (Noskowski)
!!!SMS-variant:
!!!SMS-altvar:
**kern	**dynam	**kern	**text	**text	**text	**dynam
*part2	*part2	*part1	*part1	*part1	*part1	*part1
*staff2	*	*staff1	*staff1	*staff1	*staff1	*
*I"[Bassi I, II]	*	*I"[Tenori I, II]	*	*	*	*
*I'[B I, II]	*	*I'[T I, II]	*	*	*	*
*clefF4	*	*clefGv2	*	*	*	*
*k[b-e-a-d-g-]	*	*k[b-e-a-d-g-]	*	*	*	*
*M3/4	*	*M3/4	*	*	*	*
*>[A,A]	*	*>[A,A]	*	*	*	*
=1	=1	=1	=1	=1	=1	=1
*>A	*	*>A	*	*	*	*
*^	*	*^	*	*	*	*
!	!	!	!LO:TX:t=P:problem:w źródle brak przenośnika oktawowego	!	!	!	!	!
*	*	*^	*	*	*	*	*	*
!	!	!LO:DY:b:rj	!LO:TX:a:i:t=Andantino cantabile	!	!	!	!	!	!
!	!	!	!LO:DY:a:rj	!	!	!	!	!	!LO:DY:b:rj
4F/	4D-\	p	pp	4d-/	4A-\	1. Wez-	2. Z do-	3. Oj	p
*	*	*v	*v	*	*	*	*	*	*
8A-/	8D-\	.	8f/	8d-\	-mę	-mu	da-	.
8G-/	8D-\	.	8e-/	8B-\	ja	do	-na	.
8F/	8D-\	.	8d-/	8A-\	skrzyp-	do-	da-	.
8E-/	8C\	.	8A-/	8A-\	-ki	-mu	-na	.
=2	=2	=2	=2	=2	=2	=2	=2	=2
(<8F/L	4BB-\	.	4d-/	(>8A-\L	Z zie-	Jak	skrzyp-	.
8Gn/J)	.	.	.	8B-\J)	.	.	.	.
8A-/	8AA-\	.	8f/	8c\	-lo-	gdzie	-ko	.
8G-X/	8AA-\	.	8e-/	8c\	-nej	i	ko-	.
8F/	8D-\	.	8d-/	8d-\	lip-	ko-	-cha-	.
8G-/	8E-\	.	8A-/	8A-\	-ki	-mu	-na	.
=3	=3	=3	=3	=3	=3	=3	=3	=3
!	!	!LO:HP:b	!	!	!	!	!	!LO:HP:a
8A-/	8F\	<	8d-/	8A-\	Ze	Bę-	Gdy-	<
8G-/	8E-\	.	8c/	8A-\	stru-	-dę	-by	.
(>8F/L	(<8D-\L	.	(>8d-/L	(<8A-\L	-na-	przy-	nie	.
8A-/J)	8G-\J)	.	8e-/J)	8c\J)	.	.	.	.
8An/	8F\	.	8f/	8c\	-mi	-gry-	two-	.
8B-/	8E-\	[	8g-/	8d-\	zło-	-wał	-je	[
=4	=4	=4	=4	=4	=4	=4	=4	=4
4A-X/	(>8A-\L	.	4e-/	4c\	-te-	ład-	stru-	.
.	8G-\J)	.	.	.	.	.	.	.
2A-/	2F\	.	2a-/	2d-\	-mi	-nie,	-ny	.
!!LO:LB:g=original
=5	=5	=5	=5	=5	=5	=5	=5	=5
!	!	!LO:DY:a:rj	!	!	!	!	!	!LO:DY:a:rj
8B-/	8E-\	mf	8a-/	8d-\	I	Al-	Już	mf
4c/	4AA-\	.	4a-/	4e-\	na	-bo	bym	.
8B-/	8BB-\	.	8g-/	8d-\	nich	ra-	ja	.
8A-/	8C\	.	8e-/	8e-\	gra-	-doś-	so-	.
8A-/	8E-\	.	8g-/	8c\	-jąc	-nie,	-bie	.
=6	=6	=6	=6	=6	=6	=6	=6	=6
*	*	*	*	*	*	*	*	*^
*	*	*^	*	*	*	*	*	*	*
8A-/	8D-\	.	.	8g-/	8d-\	Lu-	Al-	Spo-	.	.
4B-/	4BB-\	.	.	4g-/	4d-\	-dziom	-bo	-czy-	.	.
!	!	!LO:HP:a	!LO:HP:b	!	!	!	!	!	!LO:HP:a	!LO:HP:b
8G-/	8C\	>	>	8f/	8A-\	śpie-	ża-	-wał	>	>
8F/	8D-\	.	.	8d-/	8A-\	-wa-	-łoś-	w gro-	.	.
8D-/	8BB-\	]	]	8f/	8Gn\	-jąc,	-nie,	-bie	]	]
*	*	*v	*v	*	*	*	*	*	*	*
*	*	*	*	*	*	*	*	*v	*v
=7	=7	=7	=7	=7	=7	=7	=7	=7
!	!	!LO:DY:a:rj	!	!	!	!	!	!LO:DY:a:rj
8E-/	8C\	p	8A-/	8A-\	Bę-	Jak	U	p
8A-/	8E-\	.	8c/	8c\	-dę	tam	tej	.
4A-/	4A-\	.	4e-/	4c\	cho-	ko-	li-	.
8B-/	8E-\	.	8g-/	8d-\	-dził	-mu	-py	.
8A-/	8G-\	.	8f/	8c\	po	wy-	zie-	.
=8	=8	=8	=8	=8	=8	=8	=8	=8
*	*	*	*	*	*	*	*	*^
*	*	*^	*	*	*	*	*	*	*
!	!	!LO:HP:a	!LO:HP:b	!	!	!	!	!	!LO:HP:a	!LO:HP:b
(>8A-/L	(<8F\L	<	<	2d-/	(4d-\	zie-	-pad-	-lo-	<	<
8G-/J	8E-\J	.	.	.	.	.	.	.	.	.
4F/)	4D-\)	[	[	.	4A-\)	.	.	.	.	[
4A-/	4C\	.	.	4f/	4d-\	-mi.	-nie.	-nej.	[	.
*	*	*v	*v	*	*	*	*	*	*	*
*	*	*	*	*	*	*	*	*v	*v
!!LO:LB:g=original
=9	=9	=9	=9	=9	=9	=9	=9	=9
!	!	!LO:DY:a:rj	!	!	!	!	!	!LO:DY:a:rj
8B-/	8BB-\	mf	8a-/	8dn\	I	Al-	Już	mf
4B-/	4F\	.	4a-/	4d\	na	-bo	bym	.
8B-/	8E-\	.	8g-/	8e-\	nich	ra-	ja	.
8B-/	8G-\	.	8e-/	8e-\	gra-	-doś-	so-	.
8B-/	8E-\	.	8g-/	8e-\	-jąc,	-nie,	-bie	.
=10	=10	=10	=10	=10	=10	=10	=10	=10
*	*	*	*	*	*	*	*	*^
*	*	*^	*	*	*	*	*	*	*
8B-/	8C\	.	.	8g-/	8e-\	Lu-	Al-	Spo-	.	.
!	!	!LO:HP:a	!LO:HP:b	!	!	!	!	!	!LO:HP:a	!LO:HP:b
4An/	4F\	>	>	4g-/	4e-\	-dziom	-bo	-czy-	>	>
8B-/	8BB-\	.	.	8f/	8d-\	śpie-	ża-	-wał	.	.
8Gn/	8E-\	.	.	8d-/	8B-\	-wa-	-łoś-	w gro-	.	]
8E-/	8D-\	]	]	8f/	8Gn\	-jąc,	-nie,	-bie	]	.
*	*	*v	*v	*	*	*	*	*	*	*
*	*	*	*	*	*	*	*	*v	*v
=11	=11	=11	=11	=11	=11	=11	=11	=11
!	!	!LO:DY:a:rj	!	!	!	!	!	!LO:DY:a:rj
8E-/	8C\	p	8A-/	8G-X\	Bę-	Jak	U	p
8G-X/	8E-\	.	8c/	8A-\	-dę	tam	tej	.
4G-/	4AA-\	.	4e-/	4c\	cho-	ko-	li-	.
8B-/	8AA-\	.	8g-/	8d-\	-dził	-mu	-py	.
(<16A-/LL	8AA-\	.	8f/	8c\	po	wy-	zie-	.
16G-/JJ)	.	.	.	.	.	.	.	.
=12	=12	=12	=12	=12	=12	=12	=12	=12
*	*	*^	*	*	*	*	*	*
*	*	*	*	*	*	*	*	*	*^
!	!	!LO:HP:a	!LO:HP:b	!	!	!	!	!	!LO:HP:a	!LO:HP:b
4F/	4D-\	>	>	4d-/	4A-\	zie-	-pad-	-lo-	>	>
2F;>/	2D-;<\	]	]	2d-;>/	2A-;<\	-mi	-nie.	-nej.	]	]
*	*	*	*	*	*	*	*	*	*v	*v
*	*	*v	*v	*	*	*	*	*	*
*v	*v	*	*	*	*	*	*	*
*	*	*v	*v	*	*	*	*
=:|!	=:|!	=:|!	=:|!	=:|!	=:|!	=:|!
*-	*-	*-	*-	*-	*-	*-
!!!system-decoration: {(s1,s2)}
!!!RDF**kern: > = above
!!!RDF**kern: < = below
!!!EED: Antoni Szymański
!!!EST: 2021-06-02
!!!ENC: Katarzyna Serwa
!!!END: 2021-05-23
